X:670
T:Reel 670
M:4/4
K:Dmaj
L:1/8
AGFG ABAF| (3GFE FE EA, (3A,G,A, |ABAF FEFG|Addc dfed|ABAF AFEF|GEEF GEBc|dBAF DEFA|Bdce dBAF|Addc defd|cdef gfec|dddc dfed|cABc d2AF|dddc dfed|cAeA fAec|dfed  (3cBc dB|AFGE FDD2|
